X:16841
T:The Highlanders Lamentation
M:2/2
L:1/8
K:G
Bs>As|G2 GsEs D3sDs|G2 GsAs csBsAsGs|csBscses dsBsAsGS|AsBsAsGs E2 BsAs|
G2 GsBs D3sDs|G2sG2sg3f|esdscsBs AsBscsds|csBsAsFs G4:|!
f|gsfsesfs d3sds|gsfsgsas b3a|e2gsesdsBs AsGs|AsBsAsGs E2 BsAs|G2 GsBs D
2sD2s|G2sG2s g3f|esdscsBs AsBscsds|csBsAsFs G4:|
